X:23040
T:Woodbridge Assembly
R:March
C:Trad. Wm Clarke m.s. 1858
O:England; Norfolk; Feltwell
Z:Paul Hardy's Session Tunebook 2022 (see www.paulhardy.net). Creative Commons cc by-nc-sa licenced.
M:4/4
L:1/8
Q:1/4=120
K:G
"G"GDB,D G2 Bc|d2 ge d2 Bd|"Am"c2 Ac "G"B2 GB|"D"AGFE "D7"D2 z2|
"G"GDB,D G2 Bc|d2 ge d2 Bd|"Am"c2 Ac "G"B2 GB|"D7"AGAB "G"G2 z2:|
|:"G"d2 Bc d2 e2|"D"d2 e2 d2 ef|"G"gfed "Am"cBAG|"D"FGAF "D7"D2 z2|
"G"GDB,D G2 Bc|d2 ge d2 Bd|"Am"c2 Ac "G"B2 GB|"D7"AGAB "G"G2 z2:|

